static/img/kroki/8cda30376066406f88cb99143b81f034.svg

<?xml version="1.0" encoding="us-ascii" standalone="no"?><svg xmlns="http://www.w3.org/2000/svg" xmlns:xlink="http://www.w3.org/1999/xlink" contentStyleType="text/css" height="374px" preserveAspectRatio="none" style="width:471px;height:374px;" version="1.1" viewBox="0 0 471 374" width="471px" zoomAndPan="magnify"><defs/><g><!--class aws_iam_user--><g id="elem_aws_iam_user"><rect codeLine="23" fill="#3D176E" height="39.7891" id="aws_iam_user" rx="2.5" ry="2.5" style="stroke:#000D19;stroke-width:0.5;" width="161" x="194" y="328.58"/><ellipse cx="209" cy="348.4745" fill="#ADD1B2" rx="11" ry="11" style="stroke:#181818;stroke-width:1.0;"/><path d="M211.9688,354.1152 Q211.3906,354.412 210.75,354.5527 Q210.1094,354.7089 209.4063,354.7089 Q206.9063,354.7089 205.5781,353.0683 Q204.2656,351.412 204.2656,348.287 Q204.2656,345.162 205.5781,343.5058 Q206.9063,341.8495 209.4063,341.8495 Q210.1094,341.8495 210.75,342.0058 Q211.4063,342.162 211.9688,342.4589 L211.9688,345.1777 Q211.3438,344.5995 210.75,344.3339 Q210.1563,344.0527 209.5313,344.0527 Q208.1875,344.0527 207.5,345.1308 Q206.8125,346.1933 206.8125,348.287 Q206.8125,350.3808 207.5,351.4589 Q208.1875,352.5214 209.5313,352.5214 Q210.1563,352.5214 210.75,352.2558 Q211.3438,351.9745 211.9688,351.3964 L211.9688,354.1152 Z " fill="#000000"/><text fill="#D9B8FF" font-family="Helvetica" font-size="17" lengthAdjust="spacing" textLength="119" x="228" y="354.3598">aws_iam_user</text></g><!--class aws_resource--><g id="elem_aws_resource"><rect codeLine="26" fill="#3D176E" height="39.7891" id="aws_resource" rx="2.5" ry="2.5" style="stroke:#000D19;stroke-width:0.5;" width="155" x="7" y="167.79"/><ellipse cx="22" cy="187.6845" fill="#ADD1B2" rx="11" ry="11" style="stroke:#181818;stroke-width:1.0;"/><path d="M24.9688,193.3252 Q24.3906,193.622 23.75,193.7627 Q23.1094,193.9189 22.4063,193.9189 Q19.9063,193.9189 18.5781,192.2783 Q17.2656,190.622 17.2656,187.497 Q17.2656,184.372 18.5781,182.7158 Q19.9063,181.0595 22.4063,181.0595 Q23.1094,181.0595 23.75,181.2158 Q24.4063,181.372 24.9688,181.6689 L24.9688,184.3877 Q24.3438,183.8095 23.75,183.5439 Q23.1563,183.2627 22.5313,183.2627 Q21.1875,183.2627 20.5,184.3408 Q19.8125,185.4033 19.8125,187.497 Q19.8125,189.5908 20.5,190.6689 Q21.1875,191.7314 22.5313,191.7314 Q23.1563,191.7314 23.75,191.4658 Q24.3438,191.1845 24.9688,190.6064 L24.9688,193.3252 Z " fill="#000000"/><text fill="#D9B8FF" font-family="Helvetica" font-size="17" lengthAdjust="spacing" textLength="113" x="41" y="193.5698">aws_resource</text></g><!--class iam_principal--><g id="elem_iam_principal"><rect codeLine="29" fill="#3D176E" height="39.7891" id="iam_principal" rx="2.5" ry="2.5" style="stroke:#000D19;stroke-width:0.5;" width="154" x="197.5" y="167.79"/><ellipse cx="212.5" cy="187.6845" fill="#ADD1B2" rx="11" ry="11" style="stroke:#181818;stroke-width:1.0;"/><path d="M215.4688,193.3252 Q214.8906,193.622 214.25,193.7627 Q213.6094,193.9189 212.9063,193.9189 Q210.4063,193.9189 209.0781,192.2783 Q207.7656,190.622 207.7656,187.497 Q207.7656,184.372 209.0781,182.7158 Q210.4063,181.0595 212.9063,181.0595 Q213.6094,181.0595 214.25,181.2158 Q214.9063,181.372 215.4688,181.6689 L215.4688,184.3877 Q214.8438,183.8095 214.25,183.5439 Q213.6563,183.2627 213.0313,183.2627 Q211.6875,183.2627 211,184.3408 Q210.3125,185.4033 210.3125,187.497 Q210.3125,189.5908 211,190.6689 Q211.6875,191.7314 213.0313,191.7314 Q213.6563,191.7314 214.25,191.4658 Q214.8438,191.1845 215.4688,190.6064 L215.4688,193.3252 Z " fill="#000000"/><text fill="#D9B8FF" font-family="Helvetica" font-size="17" lengthAdjust="spacing" textLength="112" x="231.5" y="193.5698">iam_principal</text></g><!--class resource--><g id="elem_resource"><rect codeLine="32" fill="#3D176E" height="39.7891" id="resource" rx="2.5" ry="2.5" style="stroke:#000D19;stroke-width:0.5;" width="113" x="218" y="7"/><ellipse cx="233" cy="26.8945" fill="#ADD1B2" rx="11" ry="11" style="stroke:#181818;stroke-width:1.0;"/><path d="M235.9688,32.5352 Q235.3906,32.832 234.75,32.9727 Q234.1094,33.1289 233.4063,33.1289 Q230.9063,33.1289 229.5781,31.4883 Q228.2656,29.832 228.2656,26.707 Q228.2656,23.582 229.5781,21.9258 Q230.9063,20.2695 233.4063,20.2695 Q234.1094,20.2695 234.75,20.4258 Q235.4063,20.582 235.9688,20.8789 L235.9688,23.5977 Q235.3438,23.0195 234.75,22.7539 Q234.1563,22.4727 233.5313,22.4727 Q232.1875,22.4727 231.5,23.5508 Q230.8125,24.6133 230.8125,26.707 Q230.8125,28.8008 231.5,29.8789 Q232.1875,30.9414 233.5313,30.9414 Q234.1563,30.9414 234.75,30.6758 Q235.3438,30.3945 235.9688,29.8164 L235.9688,32.5352 Z " fill="#000000"/><text fill="#D9B8FF" font-family="Helvetica" font-size="17" lengthAdjust="spacing" textLength="71" x="252" y="32.7798">resource</text></g><!--class user--><g id="elem_user"><rect codeLine="35" fill="#3D176E" height="39.7891" id="user" rx="2.5" ry="2.5" style="stroke:#000D19;stroke-width:0.5;" width="78" x="386.5" y="167.79"/><ellipse cx="401.5" cy="187.6845" fill="#ADD1B2" rx="11" ry="11" style="stroke:#181818;stroke-width:1.0;"/><path d="M404.4688,193.3252 Q403.8906,193.622 403.25,193.7627 Q402.6094,193.9189 401.9063,193.9189 Q399.4063,193.9189 398.0781,192.2783 Q396.7656,190.622 396.7656,187.497 Q396.7656,184.372 398.0781,182.7158 Q399.4063,181.0595 401.9063,181.0595 Q402.6094,181.0595 403.25,181.2158 Q403.9063,181.372 404.4688,181.6689 L404.4688,184.3877 Q403.8438,183.8095 403.25,183.5439 Q402.6563,183.2627 402.0313,183.2627 Q400.6875,183.2627 400,184.3408 Q399.3125,185.4033 399.3125,187.497 Q399.3125,189.5908 400,190.6689 Q400.6875,191.7314 402.0313,191.7314 Q402.6563,191.7314 403.25,191.4658 Q403.8438,191.1845 404.4688,190.6064 L404.4688,193.3252 Z " fill="#000000"/><text fill="#D9B8FF" font-family="Helvetica" font-size="17" lengthAdjust="spacing" textLength="36" x="420.5" y="193.5698">user</text></g><!--reverse link aws_resource to aws_iam_user--><g id="link_aws_resource_aws_iam_user"><path codeLine="38" d="M121.2318,219.3827 C157.7518,249.9027 214.93,297.69 251.5,328.25 " fill="none" id="aws_resource-backto-aws_iam_user" style="stroke:#FFAF37;stroke-width:2.0;"/><polygon fill="none" points="107.42,207.84,117.3843,223.9866,125.0794,214.7787,107.42,207.84" style="stroke:#FFAF37;stroke-width:2.0;"/></g><!--reverse link iam_principal to aws_iam_user--><g id="link_iam_principal_aws_iam_user"><path codeLine="39" d="M274.5,225.84 C274.5,256.36 274.5,297.69 274.5,328.25 " fill="none" id="iam_principal-backto-aws_iam_user" style="stroke:#FFAF37;stroke-width:2.0;"/><polygon fill="none" points="274.5,207.84,268.5,225.84,280.5,225.84,274.5,207.84" style="stroke:#FFAF37;stroke-width:2.0;"/></g><!--reverse link user to aws_iam_user--><g id="link_user_aws_iam_user"><path codeLine="40" d="M394.8844,220.8823 C365.8544,251.4023 321.84,297.69 292.78,328.25 " fill="none" id="user-backto-aws_iam_user" style="stroke:#FFAF37;stroke-width:2.0;"/><polygon fill="none" points="407.29,207.84,390.537,216.7471,399.2319,225.0175,407.29,207.84" style="stroke:#FFAF37;stroke-width:2.0;"/></g><!--reverse link resource to aws_resource--><g id="link_resource_aws_resource"><path codeLine="41" d="M237.7682,58.5927 C201.2482,89.1127 144.07,136.9 107.5,167.46 " fill="none" id="resource-backto-aws_resource" style="stroke:#FFAF37;stroke-width:2.0;"/><polygon fill="none" points="251.58,47.05,233.9206,53.9887,241.6157,63.1966,251.58,47.05" style="stroke:#FFAF37;stroke-width:2.0;"/></g><!--reverse link resource to iam_principal--><g id="link_resource_iam_principal"><path codeLine="42" d="M274.5,65.05 C274.5,95.57 274.5,136.9 274.5,167.46 " fill="none" id="resource-backto-iam_principal" style="stroke:#FFAF37;stroke-width:2.0;"/><polygon fill="none" points="274.5,47.05,268.5,65.05,280.5,65.05,274.5,47.05" style="stroke:#FFAF37;stroke-width:2.0;"/></g><!--reverse link resource to user--><g id="link_resource_user"><path codeLine="43" d="M305.1156,60.0923 C334.1456,90.6123 378.16,136.9 407.22,167.46 " fill="none" id="resource-backto-user" style="stroke:#FFAF37;stroke-width:2.0;"/><polygon fill="none" points="292.71,47.05,300.7681,64.2275,309.463,55.9571,292.71,47.05" style="stroke:#FFAF37;stroke-width:2.0;"/></g><!--SRC=[XP3DRi8m48JlUGfBd952KHkGUg58LNj1LUaTRU8rM2HsjEiqeZ_lNWAbTPm0rvbFCxExqH855gNRYGAB58aZtcfJ0a4XPaIsdjlSaXWe1MgSXEQZDUugi802nHFcx-Xq1Y7njj7PrY2pkF6i1yYsQxALaSTuHs1uRw5n7ZNFWNdc7EcqSkYDaTDqebH8Xg63iHmbTzZ1B4caNoIEOpcQXiZLgejt_n5B_O5Yv3zjOHrsPdOg3jJ5bGtXZUmSUlBFRdm1ARLPYrjFUprk8eFKqfSRaBPkQ0Kv-pNiaD2wNOdppbKudKYLzCBFv-0eQrudeEQLXc9LyNx9PnHzUpeXsueozFM6BKcRJ9UG-qOV_1_QYhl_6Ww7hUQe7Ti37A9wz9xGanHwhOxGF8Jz0000]--></g></svg>

<svg xmlns="http://www.w3.org/2000/svg" width="471" height="374" viewBox="0 0 471 374"><rect width="161" height="39.789" x="194" y="328.58" fill="#3D176E" rx="2.5" ry="2.5" style="stroke:#000d19;stroke-width:.5"/><circle cx="209" cy="348.474" r="11" fill="#ADD1B2" style="stroke:#181818;stroke-width:1"/><path d="M211.969 354.115q-.578.297-1.219.438-.64.156-1.344.156-2.5 0-3.828-1.64-1.312-1.657-1.312-4.782t1.312-4.781q1.328-1.656 3.828-1.656.703 0 1.344.156.656.156 1.219.453v2.719q-.625-.579-1.219-.844-.594-.281-1.219-.281-1.344 0-2.031 1.078-.687 1.062-.687 3.156t.687 3.172q.688 1.062 2.031 1.062.625 0 1.219-.265.594-.281 1.219-.86z"/><text x="228" y="354.36" fill="#D9B8FF" font-family="Helvetica" font-size="17" textLength="119">aws_iam_user</text><rect width="155" height="39.789" x="7" y="167.79" fill="#3D176E" rx="2.5" ry="2.5" style="stroke:#000d19;stroke-width:.5"/><circle cx="22" cy="187.685" r="11" fill="#ADD1B2" style="stroke:#181818;stroke-width:1"/><path d="M24.969 193.325q-.578.297-1.219.438-.64.156-1.344.156-2.5 0-3.828-1.64-1.312-1.657-1.312-4.782t1.312-4.781q1.328-1.656 3.828-1.656.703 0 1.344.156.656.156 1.219.453v2.719q-.625-.578-1.219-.844-.594-.281-1.219-.281-1.343 0-2.031 1.078-.687 1.062-.687 3.156t.687 3.172q.688 1.062 2.031 1.062.625 0 1.219-.265.594-.281 1.219-.86z"/><text x="41" y="193.57" fill="#D9B8FF" font-family="Helvetica" font-size="17" textLength="113">aws_resource</text><rect width="154" height="39.789" x="197.5" y="167.79" fill="#3D176E" rx="2.5" ry="2.5" style="stroke:#000d19;stroke-width:.5"/><circle cx="212.5" cy="187.685" r="11" fill="#ADD1B2" style="stroke:#181818;stroke-width:1"/><path d="M215.469 193.325q-.578.297-1.219.438-.64.156-1.344.156-2.5 0-3.828-1.64-1.312-1.657-1.312-4.782t1.312-4.781q1.328-1.656 3.828-1.656.703 0 1.344.156.656.156 1.219.453v2.719q-.625-.578-1.219-.844-.594-.281-1.219-.281-1.344 0-2.031 1.078-.687 1.062-.687 3.156t.687 3.172q.688 1.062 2.031 1.062.625 0 1.219-.265.594-.281 1.219-.86z"/><text x="231.5" y="193.57" fill="#D9B8FF" font-family="Helvetica" font-size="17" textLength="112">iam_principal</text><rect width="113" height="39.789" x="218" y="7" fill="#3D176E" rx="2.5" ry="2.5" style="stroke:#000d19;stroke-width:.5"/><circle cx="233" cy="26.895" r="11" fill="#ADD1B2" style="stroke:#181818;stroke-width:1"/><path d="M235.969 32.535q-.578.297-1.219.438-.64.156-1.344.156-2.5 0-3.828-1.64-1.312-1.657-1.312-4.782t1.312-4.781q1.328-1.656 3.828-1.656.703 0 1.344.156.656.156 1.219.453v2.719q-.625-.578-1.219-.844-.594-.281-1.219-.281-1.344 0-2.031 1.078-.687 1.062-.687 3.156t.687 3.172q.688 1.062 2.031 1.062.625 0 1.219-.265.594-.281 1.219-.86z"/><text x="252" y="32.78" fill="#D9B8FF" font-family="Helvetica" font-size="17" textLength="71">resource</text><rect width="78" height="39.789" x="386.5" y="167.79" fill="#3D176E" rx="2.5" ry="2.5" style="stroke:#000d19;stroke-width:.5"/><circle cx="401.5" cy="187.685" r="11" fill="#ADD1B2" style="stroke:#181818;stroke-width:1"/><path d="M404.469 193.325q-.578.297-1.219.438-.64.156-1.344.156-2.5 0-3.828-1.64-1.312-1.657-1.312-4.782t1.312-4.781q1.328-1.656 3.828-1.656.703 0 1.344.156.656.156 1.219.453v2.719q-.625-.578-1.219-.844-.594-.281-1.219-.281-1.344 0-2.031 1.078-.687 1.062-.687 3.156t.687 3.172q.688 1.062 2.031 1.062.625 0 1.219-.265.594-.281 1.219-.86z"/><text x="420.5" y="193.57" fill="#D9B8FF" font-family="Helvetica" font-size="17" textLength="36">user</text><path fill="none" d="M121.232 219.383c36.52 30.52 93.698 78.307 130.268 108.867M107.42 207.84l9.964 16.147 7.695-9.208zm167.08 18v102.41m0-120.41-6 18h12zm120.384 13.042c-29.03 30.52-73.044 76.808-102.104 107.368m114.51-120.41-16.753 8.907 8.695 8.27zM237.768 58.593C201.248 89.113 144.07 136.9 107.5 167.46M251.58 47.05l-17.66 6.939 7.696 9.208zm22.92 18v102.41m0-120.41-6 18h12z" style="stroke:#ffaf37;stroke-width:2"/><g fill="none"><path d="M305.116 60.092c29.03 30.52 73.044 76.808 102.104 107.368" style="stroke:#ffaf37;stroke-width:2"/><path d="m292.71 47.05 8.058 17.178 8.695-8.27z" style="stroke:#ffaf37;stroke-width:2"/></g></svg>
